X: 317
U:~=!turn!
M:C|
L:1/8
K:D
g | fdad Tf2 (df) | gfed ceAg | fdad Tf2 (df) | gbag fddg |
fdad Tf2 (df) | gfed ceA=c | B2 GB ^ce Ac | {/c}dfeg Tfdd |]


